X: 067
M: C|
L: 1/8
K: G
|:\
g2(dc) (3(Bcd) cB | ABcB A2D2 |\
|:\
(3(Bcd) dd .g(dcB) | (3(Bcd) dd .g(dcB) |
(ca).a.a (Bg).g.g | Bd DF G2G2 :|\
|:\

